resources/svg/robot.svg

<svg xmlns="http://www.w3.org/2000/svg" viewBox="0 0 15 15" fill="currentColor"><path d="M5 8.5C5 8.22386 5.22386 8 5.5 8C5.77614 8 6 8.22386 6 8.5C6 8.77614 5.77614 9 5.5 9C5.22386 9 5 8.77614 5 8.5Z" fill="black"/><path d="M9 8.5C9 8.22386 9.22386 8 9.5 8C9.77614 8 10 8.22386 10 8.5C10 8.77614 9.77614 9 9.5 9C9.22386 9 9 8.77614 9 8.5Z" fill="black"/><path fill-rule="evenodd" clip-rule="evenodd" d="M8 2.02242C10.8033 2.27504 13 4.63098 13 7.5V13.5C13 14.3284 12.3284 15 11.5 15H3.5C2.67157 15 2 14.3284 2 13.5V7.5C2 4.63098 4.19675 2.27504 7 2.02242V0H8V2.02242ZM5.5 7C4.67157 7 4 7.67157 4 8.5C4 9.32843 4.67157 10 5.5 10C6.32843 10 7 9.32843 7 8.5C7 7.67157 6.32843 7 5.5 7ZM9.5 7C8.67157 7 8 7.67157 8 8.5C8 9.32843 8.67157 10 9.5 10C10.3284 10 11 9.32843 11 8.5C11 7.67157 10.3284 7 9.5 7ZM11 12H4V11H11V12Z" fill="black"/><path d="M0 8V12H1V8H0Z" fill="black"/><path d="M15 8H14V12H15V8Z" fill="black"/></svg>

<svg xmlns="http://www.w3.org/2000/svg" viewBox="0 0 15 15" fill="currentColor"><path d="M5 8.5a.5.5 0 111 0 .5.5 0 01-1 0zm4 0a.5.5 0 111 0 .5.5 0 01-1 0z" fill="currentColor"/><path fill-rule="evenodd" clip-rule="evenodd" d="M8 2.022A5.5 5.5 0 0113 7.5v6a1.5 1.5 0 01-1.5 1.5h-8A1.5 1.5 0 012 13.5v-6a5.5 5.5 0 015-5.478V0h1v2.022zM5.5 7a1.5 1.5 0 100 3 1.5 1.5 0 000-3zm4 0a1.5 1.5 0 100 3 1.5 1.5 0 000-3zm1.5 5H4v-1h7v1z" fill="currentColor"/><path d="M0 8v4h1V8H0zm15 0h-1v4h1V8z" fill="currentColor"/></svg>
